packages/kaspersky-hexa-ui-icons/src/iconsSVGs/24/Terminal.svg

<svg width="24" height="24" viewBox="0 0 24 24" fill="none" xmlns="http://www.w3.org/2000/svg">
<path d="M12.0001 15C12.0001 14.4477 12.4478 14 13.0001 14H17.0001C17.5524 14 18.0001 14.4477 18.0001 15C18.0001 15.5523 17.5524 16 17.0001 16H13.0001C12.4478 16 12.0001 15.5523 12.0001 15Z" fill="black"/>
<path d="M7.70723 9.29289C7.3167 8.90237 6.68354 8.90237 6.29302 9.29289C5.90249 9.68342 5.90249 10.3166 6.29302 10.7071L8.08591 12.5L6.29302 14.2929C5.90249 14.6834 5.90249 15.3166 6.29302 15.7071C6.68354 16.0976 7.3167 16.0976 7.70723 15.7071L10.2072 13.2071C10.5978 12.8166 10.5978 12.1834 10.2072 11.7929L7.70723 9.29289Z" fill="black"/>
<path fill-rule="evenodd" clip-rule="evenodd" d="M2.01367 7C2.01367 5.34315 3.35682 4 5.01367 4H19.0137C20.6705 4 22.0137 5.34315 22.0137 7V17C22.0137 18.6569 20.6705 20 19.0137 20H5.01367C3.35682 20 2.01367 18.6569 2.01367 17V7ZM4.01368 6.99615L4.01367 7V17C4.01367 17.5523 4.46139 18 5.01367 18H19.0137C19.566 18 20.0137 17.5523 20.0137 17V7L20.0137 6.99615H4.01368Z" fill="black"/>
</svg>

<svg xmlns="http://www.w3.org/2000/svg" width="24" height="24" fill="none" viewBox="0 0 24 24"><path fill="#000" fill-rule="evenodd" d="M5.0136 4c-1.657 0-3 1.3431-3 3v10c0 1.6569 1.343 3 3 3h13.9999c1.6569 0 3-1.3431 3-3V7c0-1.6569-1.3431-3-3-3zm-1 3v-.0038h15.9999V17c0 .5523-.4477 1-1 1h-14c-.5522 0-1-.4477-1-1zM7.707 9.2929c-.3905-.3905-1.0237-.3905-1.4142 0s-.3905 1.0237 0 1.4142L8.0858 12.5l-1.793 1.7929c-.3904.3905-.3904 1.0237 0 1.4142.3906.3905 1.0238.3905 1.4143 0l2.5-2.5c.3905-.3905.3905-1.0237 0-1.4142zM12 15c0-.5523.4477-1 1-1h4c.5523 0 1 .4477 1 1s-.4477 1-1 1h-4c-.5523 0-1-.4477-1-1"/></svg>
